assets/features/channel/other/mada.svg

<svg width="80" height="80" viewBox="0 0 80 80" fill="none" xmlns="http://www.w3.org/2000/svg">
<rect x="0.5" y="0.5" width="79" height="79" rx="7.5" fill="white"/>
<rect x="0.5" y="0.5" width="79" height="79" rx="7.5" stroke="#EEEEEE"/>
<path d="M71.9999 33.6837C71.9566 33.8629 71.9155 34.0425 71.8696 34.221C71.4395 35.895 70.0648 36.9069 68.2653 36.8609C67.5793 36.8434 66.9086 36.7412 66.2491 36.5249C66.0267 36.4519 65.7477 36.5499 65.4946 36.5719C65.1596 36.6011 64.8248 36.6578 64.4898 36.6586C61.3415 36.6652 58.1932 36.6625 55.0449 36.6625C54.9399 36.6625 54.8351 36.6625 54.7007 36.6625C54.7793 36.1427 54.8534 35.6535 54.925 35.1804C56.2414 35.1804 57.5426 35.1804 58.8789 35.1804C58.8543 35.2103 58.8741 35.1975 58.8738 35.185C58.8574 34.2174 58.847 33.2496 58.815 32.2825C58.8091 32.1026 58.7315 31.9191 58.6611 31.748C58.4076 31.1331 57.9441 30.8176 57.2753 30.8152C56.7507 30.8132 56.2259 30.8145 55.7012 30.8145C55.6065 30.8145 55.5116 30.8145 55.3873 30.8145C55.4567 30.3271 55.5159 29.8798 55.59 29.4349C55.599 29.3812 55.6901 29.2997 55.7419 29.3007C56.6298 29.3173 57.5286 29.2653 58.4024 29.3887C59.7112 29.5738 60.6555 30.6198 60.8837 32.0141C60.9678 32.5286 60.9742 33.0573 60.9922 33.5803C61.0095 34.0852 60.9959 34.5912 60.9959 35.116C61.0904 35.1231 61.167 35.1339 61.2435 35.1339C62.3818 35.1351 63.5203 35.1277 64.6585 35.1405C64.8932 35.143 64.9824 35.0405 65.0061 34.841C65.0229 34.7002 65.025 34.5571 65.0252 34.415C65.0267 33.4634 65.0246 32.5118 65.0263 31.5602C65.0283 30.4525 65.4807 29.8115 66.5397 29.4816C66.9602 29.3506 67.4034 29.2914 67.8362 29.1997C68.1387 29.1997 68.4412 29.1997 68.7436 29.1997C68.8114 29.2175 68.8783 29.2428 68.9472 29.252C70.3966 29.4462 71.4546 30.3708 71.8405 31.787C71.9006 32.008 71.947 32.2327 71.9997 32.4557C71.9999 32.8652 71.9999 33.2744 71.9999 33.6837ZM66.9792 31.2542C67.0013 31.5327 67.0348 31.7684 67.0365 32.0042C67.0429 32.9013 67.0473 33.7987 67.0332 34.6957C67.0298 34.9165 67.1087 34.9978 67.3108 35.0113C67.665 35.0349 68.0184 35.0816 68.3726 35.0884C69.1394 35.1032 69.641 34.7368 69.8479 34.001C70.0368 33.3294 70.0325 32.6473 69.8542 31.9738C69.7475 31.5711 69.5283 31.2207 69.1169 31.0874C68.3746 30.8471 67.6531 30.985 66.9792 31.2542Z" fill="black"/>
<path d="M53.9554 29.3298C53.879 29.8293 53.8053 30.3112 53.7264 30.8282C53.6152 30.8282 53.5112 30.8282 53.4074 30.8282C52.0731 30.8282 50.7387 30.8272 49.4045 30.8294C49.2181 30.8296 49.0299 30.8322 48.8453 30.8551C48.2999 30.9231 48.0108 31.2636 48.0358 31.7922C48.0605 32.3152 48.3871 32.6622 48.9143 32.6767C49.5899 32.6953 50.2664 32.6757 50.9421 32.6903C51.2426 32.6969 51.5481 32.7194 51.8411 32.7822C52.9598 33.022 53.6699 33.9166 53.6536 35.0625C53.6494 35.3535 53.6189 35.651 53.5489 35.9327C53.3216 36.8485 52.6518 37.2898 51.7842 37.4605C51.3425 37.5474 50.8849 37.5905 50.4344 37.5915C47.4723 37.5976 44.5101 37.604 41.5483 37.5754C39.701 37.5576 38.4789 36.3575 38.3739 34.5166C38.3223 33.6112 38.2801 32.7026 38.5324 31.8138C38.9496 30.345 40.0969 29.4502 41.6267 29.4231C42.5592 29.4066 43.4924 29.4201 44.4451 29.4201C44.3702 29.9312 44.2985 30.421 44.2217 30.9447C43.8628 30.9447 43.5093 30.944 43.1559 30.945C42.809 30.946 42.4617 30.9387 42.1154 30.9528C41.4883 30.9783 41.0204 31.2795 40.7832 31.8556C40.6505 32.1779 40.5593 32.5386 40.5481 32.885C40.5273 33.5304 40.5191 34.1874 40.6159 34.8227C40.7278 35.5573 41.2326 35.9932 41.9702 36.0377C42.8389 36.0902 43.712 36.0761 44.5832 36.0791C46.4957 36.0859 48.4081 36.0859 50.3206 36.0866C50.4622 36.0866 50.6065 36.0835 50.745 36.0576C51.3237 35.9494 51.6548 35.5224 51.607 34.9602C51.5596 34.403 51.1614 34.0432 50.5664 34.0328C49.7305 34.0183 48.8932 34.0372 48.0591 33.9939C47.0691 33.9426 46.3519 33.3857 46.094 32.5379C45.7954 31.556 46.0684 30.5217 46.7831 29.9649C47.3531 29.5208 48.0283 29.3367 48.7277 29.3241C50.4351 29.2932 52.1432 29.3074 53.851 29.3045C53.8763 29.304 53.9016 29.3161 53.9554 29.3298Z" fill="black"/>
<path d="M71.9999 50.5508C71.3362 50.4306 70.6741 50.2992 70.0075 50.1975C69.8223 50.1692 69.6212 50.2157 69.4318 50.2507C68.623 50.4002 67.8152 50.4966 67.0021 50.2819C66.037 50.027 65.4887 49.348 65.4558 48.3648C65.4217 47.3455 65.8925 46.6155 66.8773 46.3402C67.4597 46.1775 68.0798 46.1356 68.6867 46.0795C69.0996 46.0412 69.519 46.0722 69.9304 46.0722C70.13 45.2261 69.7401 44.6982 68.8995 44.6834C67.9737 44.6672 67.0847 44.8757 66.2144 45.1752C66.132 45.2037 66.0478 45.2274 65.9391 45.2613C65.8643 44.7551 65.7923 44.2676 65.7175 43.7611C67.156 43.2999 68.5851 42.8849 70.1085 43.1889C71.2202 43.4108 71.8102 44.0511 71.9524 45.1678C71.9612 45.2371 71.9837 45.3046 71.9999 45.3729C71.9999 47.0989 71.9999 48.8248 71.9999 50.5508ZM69.1944 47.2962C69.1922 47.2854 69.19 47.2744 69.1877 47.2636C68.8043 47.3174 68.4101 47.3322 68.0406 47.4356C67.6576 47.5428 67.4797 47.9028 67.5145 48.3205C67.5442 48.6783 67.7571 48.9681 68.1434 49.004C68.5406 49.041 68.9546 49.0083 69.3492 48.9379C70.0096 48.8201 70.0098 48.7973 70.0035 48.1199C70.0011 47.858 70.0692 47.5116 69.9323 47.3595C69.8115 47.2256 69.4497 47.309 69.1944 47.2962Z" fill="black"/>
<path d="M48.6525 50.3173C47.9342 50.3173 47.2614 50.3173 46.5588 50.3173C46.5588 50.1987 46.5588 50.0941 46.5588 49.9895C46.5588 48.6551 46.5592 47.3207 46.5581 45.9863C46.558 45.8441 46.5578 45.7009 46.5409 45.5601C46.4925 45.1563 46.2308 44.8821 45.8372 44.8394C45.3585 44.7875 44.9001 44.8692 44.5206 45.0652C44.5344 45.6527 44.5556 46.2071 44.5586 46.7614C44.5646 47.8467 44.5603 48.932 44.5603 50.0173C44.5603 50.1128 44.5603 50.2083 44.5603 50.3176C43.8619 50.3176 43.1896 50.3176 42.4716 50.3176C42.4716 50.2143 42.4716 50.1125 42.4716 50.0105C42.4716 48.6762 42.4591 47.3416 42.4756 46.0074C42.4884 44.9684 42.0229 44.6984 41.0503 44.8693C40.467 44.9719 40.4696 44.9868 40.4696 45.5703C40.4696 47.0382 40.4696 48.5059 40.4696 49.9738C40.4696 50.0791 40.4696 50.1844 40.4696 50.308C39.7553 50.308 39.0673 50.308 38.3449 50.308C38.3449 50.1954 38.3449 50.0909 38.3449 49.9865C38.3449 48.2607 38.3443 46.5349 38.3452 44.8092C38.3456 43.9341 38.5678 43.6385 39.416 43.4064C40.4643 43.1196 41.527 42.979 42.6057 43.1942C42.8964 43.2522 43.1798 43.3778 43.4464 43.5121C43.5888 43.5838 43.6893 43.5988 43.8347 43.5375C44.8625 43.1048 45.9244 42.9718 47.0159 43.2384C47.9739 43.4725 48.574 44.1463 48.6092 45.1293C48.6583 46.4975 48.6418 47.8681 48.652 49.2377C48.6547 49.5917 48.6525 49.9458 48.6525 50.3173Z" fill="black"/>
<path d="M62.1602 43.4029C62.1602 43.2798 62.1602 43.1856 62.1602 43.0914C62.1602 42.22 62.1624 41.3486 62.1584 40.4772C62.1578 40.3378 62.176 40.2417 62.3413 40.2152C62.972 40.1141 63.6014 40.0043 64.2707 39.8911C64.2707 40.002 64.2707 40.0966 64.2707 40.1912C64.2707 43.0543 64.2712 45.9174 64.2702 48.7804C64.27 49.6005 64.0903 49.8509 63.3091 50.091C62.2908 50.4039 61.2482 50.4803 60.198 50.324C58.6798 50.0978 57.6647 48.9551 57.5436 47.3606C57.4915 46.676 57.513 45.9944 57.6908 45.3229C58.0476 43.9753 59.0072 43.1756 60.3981 43.1473C60.8703 43.1378 61.3454 43.2508 61.8185 43.3135C61.9207 43.3271 62.0196 43.3653 62.1602 43.4029ZM62.1604 46.8141C62.1604 46.4676 62.1604 46.1212 62.1604 45.7747C62.1604 44.8221 62.1604 44.8221 61.1971 44.7366C60.4524 44.6706 59.9101 45.0316 59.7207 45.752C59.546 46.416 59.547 47.0901 59.7252 47.7536C59.9234 48.4907 60.4283 48.8629 61.1911 48.8488C61.4204 48.8446 61.6484 48.7938 61.8778 48.7763C62.0941 48.7597 62.1745 48.6698 62.1664 48.4395C62.1473 47.8982 62.1602 47.3559 62.1604 46.8141Z" fill="black"/>
<path d="M54.3263 46.0744C54.3953 45.0066 54.0658 44.6547 53.0476 44.6833C52.2054 44.7069 51.3936 44.8964 50.5998 45.1704C50.5171 45.199 50.433 45.2239 50.3108 45.2629C50.2427 44.7856 50.1732 44.3239 50.1164 43.8606C50.1112 43.8172 50.1773 43.7348 50.2259 43.7192C51.3715 43.3516 52.5264 43.0293 53.7482 43.0924C53.9344 43.1021 54.1213 43.121 54.3049 43.1527C55.6803 43.391 56.3315 44.1453 56.3426 45.5505C56.3554 47.1517 56.3459 48.753 56.3456 50.3544C56.3456 50.4072 56.3402 50.4598 56.3357 50.5427C56.1013 50.5028 55.8747 50.4799 55.6564 50.4243C54.8025 50.2071 53.9558 50.1636 53.081 50.3509C52.4541 50.4851 51.8053 50.4398 51.1849 50.2254C50.3194 49.9265 49.8507 49.2822 49.8236 48.3575C49.7958 47.4146 50.2062 46.7518 51.0494 46.3963C51.6243 46.1539 52.235 46.0913 52.8504 46.0764C53.337 46.0649 53.8242 46.0744 54.3263 46.0744ZM54.3696 47.349C53.76 47.349 53.1991 47.3124 52.6454 47.3598C52.14 47.4029 51.8512 47.7973 51.8758 48.2814C51.8986 48.7303 52.2237 49.0696 52.7323 49.0449C53.2409 49.0203 53.7451 48.8923 54.2491 48.799C54.2965 48.7901 54.3632 48.7064 54.3643 48.6562C54.3734 48.2222 54.3696 47.788 54.3696 47.349Z" fill="black"/>
<path d="M35.0626 29.1997H8V38.1672H35.0626V29.1997Z" fill="#269AD6"/>
<path d="M35.0626 41.4243H8V50.3919H35.0626V41.4243Z" fill="#84B741"/>
</svg>

<svg xmlns="http://www.w3.org/2000/svg" width="80" height="80" fill="none" viewBox="0 0 80 80"><rect width="79" height="79" x=".5" y=".5" fill="#fff" rx="7.5"/><rect width="79" height="79" x=".5" y=".5" stroke="#eee" rx="7.5"/><path fill="#000" d="M72 33.684q-.064.269-.13.537c-.43 1.674-1.805 2.686-3.605 2.64a7 7 0 0 1-2.016-.336c-.222-.073-.501.025-.754.047-.335.03-.67.086-1.005.087-3.148.006-6.297.004-9.445.004H54.7l.224-1.483h3.954c-.025.03-.005.017-.005.005-.017-.968-.027-1.935-.059-2.903-.006-.18-.084-.363-.154-.534-.253-.615-.717-.93-1.386-.933q-.787-.002-1.574 0h-.314c.07-.488.129-.935.203-1.38.009-.054.1-.135.152-.134.888.016 1.787-.036 2.66.088 1.31.185 2.254 1.23 2.482 2.625.084.515.09 1.043.108 1.566.018.505.004 1.011.004 1.536.094.007.171.018.247.018 1.139.001 2.277-.006 3.416.007.234.002.323-.1.347-.3.017-.14.019-.284.02-.426V31.56c.002-1.107.455-1.748 1.514-2.078.42-.131.863-.19 1.296-.282h.908c.067.018.134.043.203.052 1.45.194 2.508 1.119 2.894 2.535.06.221.106.446.159.669zm-5.02-2.43c.021.279.055.514.056.75.007.897.011 1.795-.003 2.692-.003.22.076.302.278.315.354.024.707.07 1.062.077.766.015 1.268-.351 1.475-1.087a3.8 3.8 0 0 0 .006-2.027c-.106-.403-.326-.753-.737-.887-.742-.24-1.464-.102-2.138.167M53.955 29.33l-.229 1.498h-.319l-4.002.001c-.187 0-.375.003-.56.026-.545.068-.834.409-.81.937.026.523.352.87.88.885.675.018 1.351-.001 2.027.013.3.007.606.03.9.092 1.118.24 1.828 1.135 1.812 2.28a4 4 0 0 1-.105.87c-.227.916-.897 1.358-1.765 1.529-.441.086-.9.13-1.35.13a731 731 0 0 1-8.886-.016c-1.847-.017-3.07-1.218-3.174-3.058-.052-.906-.094-1.814.158-2.703.418-1.469 1.565-2.364 3.095-2.39.932-.017 1.865-.004 2.818-.004l-.223 1.525h-1.066c-.347.001-.694-.006-1.04.008-.628.025-1.096.326-1.333.903a3 3 0 0 0-.235 1.029c-.02.645-.029 1.302.068 1.938.112.734.617 1.17 1.354 1.215.869.052 1.742.038 2.613.041q2.869.008 5.738.008c.141 0 .285-.004.424-.03.579-.108.91-.535.862-1.097-.047-.557-.446-.917-1.04-.927-.837-.015-1.674.004-2.508-.04-.99-.05-1.707-.607-1.965-1.455-.299-.982-.026-2.016.69-2.573.57-.444 1.244-.628 1.944-.64 1.707-.032 3.415-.018 5.123-.02.025-.001.05.011.104.025M72 50.55c-.664-.12-1.326-.25-1.993-.352-.185-.029-.386.018-.575.053-.809.15-1.617.246-2.43.03-.965-.254-1.513-.933-1.546-1.916-.034-1.02.436-1.75 1.421-2.025.583-.163 1.203-.204 1.81-.26.413-.039.832-.008 1.243-.008.2-.846-.19-1.374-1.03-1.389-.926-.016-1.815.193-2.686.492-.082.029-.166.052-.275.086l-.221-1.5c1.438-.461 2.867-.876 4.39-.572 1.112.222 1.702.862 1.844 1.979.01.07.032.137.048.205zm-2.806-3.254-.006-.032c-.384.053-.778.068-1.147.172-.383.107-.561.467-.526.885.03.357.242.647.628.683.398.037.812.004 1.206-.066.66-.118.66-.14.654-.818-.002-.262.066-.608-.07-.76-.122-.134-.483-.051-.739-.064m-20.541 3.021h-2.094v-4.331c-.001-.142-.001-.285-.018-.426-.048-.404-.31-.678-.704-.72a2.33 2.33 0 0 0-1.316.225c.013.588.035 1.142.038 1.696.006 1.086.001 2.171.001 3.256v.3h-2.088v-.306c0-1.335-.013-2.67.004-4.004.012-1.039-.453-1.309-1.426-1.138-.583.103-.58.118-.58.701v4.738h-2.125v-5.499c0-.875.223-1.17 1.071-1.403 1.048-.286 2.111-.427 3.19-.212.29.058.574.184.84.318.143.072.243.087.389.026 1.027-.433 2.09-.566 3.18-.3.959.234 1.559.908 1.594 1.891.05 1.369.033 2.74.043 4.109.003.354 0 .708 0 1.08m13.508-6.915v-.312c0-.871.002-1.742-.002-2.614 0-.14.018-.235.183-.262.631-.1 1.26-.21 1.93-.324v8.89c-.001.82-.18 1.07-.962 1.31a7 7 0 0 1-3.111.233c-1.518-.226-2.533-1.369-2.654-2.963-.052-.685-.031-1.367.147-2.038.357-1.348 1.316-2.147 2.707-2.176.472-.01.947.104 1.42.166.103.014.202.052.342.09m0 3.411v-1.04c0-.952 0-.952-.963-1.037-.745-.066-1.287.295-1.476 1.015a3.85 3.85 0 0 0 .004 2.002c.198.737.703 1.109 1.466 1.095.23-.004.457-.055.687-.073.216-.016.297-.106.288-.337-.019-.54-.006-1.083-.006-1.625m-7.834-.74c.07-1.067-.26-1.42-1.278-1.39-.843.023-1.654.212-2.448.486-.083.029-.167.054-.29.093-.067-.477-.137-.94-.194-1.402-.005-.044.061-.126.11-.142 1.145-.367 2.3-.69 3.522-.627q.28.014.557.06c1.375.239 2.026.993 2.038 2.398.012 1.602.003 3.203.003 4.804 0 .053-.006.106-.01.189-.235-.04-.461-.063-.68-.119-.853-.217-1.7-.26-2.575-.073a3.5 3.5 0 0 1-1.896-.126c-.866-.299-1.334-.943-1.361-1.867-.028-.943.382-1.606 1.225-1.962.575-.242 1.186-.305 1.801-.32.487-.011.974-.002 1.476-.002m.044 1.275c-.61 0-1.17-.037-1.725.01-.505.044-.794.438-.77.922.024.45.349.789.857.764.509-.025 1.013-.153 1.517-.246.047-.009.114-.093.115-.143.01-.434.006-.868.006-1.307"/><path fill="#269ad6" d="M35.063 29.2H8v8.967h27.063z"/><path fill="#84b741" d="M35.063 41.424H8v8.968h27.063z"/></svg>
